X: 19031
T: Invasion
R: march
M: 
K: Gmajor
M:5/4
|:A2GAE2 ABcd|eaagag fdcd|A2GAE2 ABcd|egdcAG A2EG:|
|:AGEAcA d2cd|eaagag f2dc|AGEAcA d2cd|1 egdcAG A2EG:|2 egdcAG A2AB||
|:cegege f2dB|Acecec d2cB|cegege f2dB|AcBGEG A2AB:|

